public/assets/img/secenek1.svg

<?xml version="1.0" encoding="utf-8"?>
<!-- Generator: Adobe Illustrator 16.0.0, SVG Export Plug-In . SVG Version: 6.00 Build 0)  -->
<!DOCTYPE svg PUBLIC "-//W3C//DTD SVG 1.1//EN" "http://www.w3.org/Graphics/SVG/1.1/DTD/svg11.dtd">
<svg version="1.1" id="Layer_1" xmlns="http://www.w3.org/2000/svg" xmlns:xlink="http://www.w3.org/1999/xlink" x="0px" y="0px"
	 width="180px" height="150px" viewBox="0 0 180 150" enable-background="new 0 0 180 150" xml:space="preserve">
<g>
	<g>
		<g>
			<g>
				<polygon fill="#1C75BC" points="45.588,148.989 1.177,75 45.588,1.008 134.413,1.008 178.824,75 134.413,148.989 				"/>
				<path fill="#2F5190" d="M134.982,150H45.017L0,75L45.017,0h89.965L180,75L134.982,150z M46.159,147.981h87.685L177.648,75
					L133.844,2.019H46.159L2.353,75L46.159,147.981z"/>
			</g>
			<g>
				<polygon fill="#F5C714" points="33.229,128.397 45.588,148.989 134.413,148.989 146.771,128.397 				"/>
				<path fill="#2F5190" d="M134.982,150H45.017l-13.571-22.609h117.108L134.982,150z M46.159,147.981h87.685l11.146-18.574H35.011
					L46.159,147.981z"/>
			</g>
		</g>
		<g enable-background="new    ">
			<g>
				<path d="M60.495,141.694c0.566,0.349,1.394,0.64,2.265,0.64c1.292,0,2.047-0.685,2.047-1.673c0-0.915-0.522-1.438-1.844-1.946
					c-1.597-0.566-2.584-1.396-2.584-2.775c0-1.525,1.263-2.66,3.165-2.66c1.002,0,1.728,0.232,2.164,0.48l-0.349,1.031
					c-0.319-0.175-0.973-0.466-1.858-0.466c-1.336,0-1.844,0.8-1.844,1.47c0,0.914,0.596,1.364,1.945,1.889
					c1.656,0.639,2.497,1.438,2.497,2.877c0,1.512-1.118,2.82-3.426,2.82c-0.944,0-1.975-0.277-2.497-0.625L60.495,141.694z"/>
			</g>
			<g>
				<path d="M68.582,139.95c0.029,1.729,1.133,2.441,2.41,2.441c0.915,0,1.467-0.16,1.946-0.363l0.218,0.916
					c-0.45,0.203-1.219,0.437-2.338,0.437c-2.163,0-3.455-1.426-3.455-3.547s1.249-3.793,3.295-3.793
					c2.294,0,2.904,2.021,2.904,3.313c0,0.26-0.029,0.465-0.043,0.596H68.582L68.582,139.95z M72.328,139.032
					c0.015-0.813-0.334-2.075-1.771-2.075c-1.292,0-1.858,1.19-1.96,2.075H72.328z"/>
			</g>
			<g>
				<path d="M80.169,142.971c-0.305,0.16-0.973,0.394-1.844,0.408l-0.363,0.58c0.523,0.103,1.017,0.465,1.017,1.062
					c0,0.873-0.726,1.207-1.51,1.207c-0.334,0-0.74-0.089-1.017-0.248l0.218-0.652c0.218,0.132,0.508,0.189,0.798,0.189
					c0.334,0,0.625-0.103,0.625-0.451c-0.015-0.394-0.45-0.537-1.133-0.61l0.61-1.119c-1.787-0.218-2.933-1.599-2.933-3.545
					c0-2.166,1.481-3.734,3.775-3.734c0.755,0,1.423,0.188,1.772,0.361l-0.291,0.987c-0.305-0.174-0.784-0.334-1.481-0.334
					c-1.612,0-2.482,1.19-2.482,2.66c0,1.627,1.045,2.631,2.438,2.631c0.726,0,1.22-0.188,1.568-0.351L80.169,142.971z"/>
			</g>
			<g>
				<path d="M82.26,139.95c0.029,1.729,1.133,2.441,2.411,2.441c0.915,0,1.466-0.16,1.945-0.363l0.218,0.916
					c-0.45,0.203-1.219,0.437-2.338,0.437c-2.163,0-3.455-1.426-3.455-3.547s1.249-3.793,3.296-3.793
					c2.294,0,2.904,2.021,2.904,3.313c0,0.26-0.029,0.465-0.043,0.596H82.26L82.26,139.95z M86.007,139.032
					c0.014-0.813-0.334-2.075-1.772-2.075c-1.292,0-1.858,1.19-1.96,2.075H86.007z"/>
			</g>
			<g>
				<path d="M88.824,138.104c0-0.729-0.015-1.322-0.059-1.904h1.133l0.073,1.162h0.028c0.349-0.668,1.161-1.321,2.324-1.321
					c0.972,0,2.481,0.582,2.481,2.993v4.199h-1.277v-4.056c0-1.133-0.422-2.077-1.627-2.077c-0.842,0-1.494,0.596-1.712,1.309
					c-0.058,0.16-0.087,0.38-0.087,0.597v4.229h-1.278L88.824,138.104L88.824,138.104z"/>
			</g>
			<g>
				<path d="M97.596,139.95c0.028,1.729,1.133,2.441,2.41,2.441c0.914,0,1.467-0.16,1.945-0.363l0.218,0.916
					c-0.45,0.203-1.221,0.437-2.338,0.437c-2.164,0-3.456-1.426-3.456-3.547s1.249-3.793,3.297-3.793
					c2.293,0,2.903,2.021,2.903,3.313c0,0.26-0.029,0.465-0.044,0.596H97.596L97.596,139.95z M101.341,139.032
					c0.015-0.813-0.334-2.075-1.772-2.075c-1.291,0-1.856,1.19-1.959,2.075H101.341z"/>
			</g>
			<g>
				<path d="M105.421,139.426h0.029c0.175-0.248,0.421-0.553,0.625-0.799l2.062-2.428h1.538l-2.715,2.891l3.093,4.144h-1.554
					l-2.425-3.371l-0.653,0.728v2.645h-1.263v-10.318h1.263V139.426L105.421,139.426z"/>
			</g>
			<g>
				<path d="M116.413,134.979h-0.029l-1.64,0.887l-0.248-0.976l2.063-1.104h1.09v9.445h-1.234L116.413,134.979L116.413,134.979z"/>
			</g>
		</g>
	</g>
	<g>
		<g>
			<rect x="54.691" y="69.549" fill="#FFFFFF" width="70.618" height="6.056"/>
		</g>
		<g>
			<path fill="#FFFFFF" d="M72.36,72.584c0,9.76-7.905,17.672-17.655,17.672S37.05,82.344,37.05,72.584
				c0-9.761,7.905-17.672,17.655-17.672S72.36,62.824,72.36,72.584z"/>
		</g>
		<g>
			<path fill="#FFFFFF" d="M142.964,72.577c0,9.761-7.905,17.673-17.655,17.673c-9.748,0-17.652-7.912-17.652-17.673
				c0-9.76,7.904-17.672,17.652-17.672C135.059,54.905,142.964,62.817,142.964,72.577z"/>
		</g>
	</g>
	<g>
		<g>
			<ellipse fill="none" cx="54.705" cy="72.578" rx="17.654" ry="17.672"/>
		</g>
		<g>
			<g>
				<path d="M39.567,67.014c0.797-0.135,1.916-0.236,3.491-0.236c1.592,0,2.729,0.305,3.49,0.916c0.729,0.577,1.22,1.525,1.22,2.646
					c0,1.119-0.373,2.068-1.05,2.713c-0.881,0.832-2.186,1.205-3.711,1.205c-0.339,0-0.644-0.017-0.881-0.051v4.088h-2.559V67.014
					L39.567,67.014L39.567,67.014z M42.126,72.205c0.22,0.051,0.492,0.066,0.864,0.066c1.373,0,2.219-0.695,2.219-1.866
					c0-1.051-0.729-1.678-2.016-1.678c-0.526,0-0.882,0.05-1.068,0.103L42.126,72.205L42.126,72.205z"/>
			</g>
			<g>
				<path d="M49.411,67.014c0.83-0.135,2.067-0.236,3.439-0.236c1.694,0,2.881,0.254,3.694,0.898
					c0.678,0.543,1.051,1.341,1.051,2.393c0,1.458-1.034,2.459-2.016,2.814v0.052c0.797,0.321,1.236,1.085,1.524,2.137
					c0.356,1.288,0.712,2.782,0.932,3.222h-2.644c-0.186-0.32-0.457-1.254-0.796-2.662c-0.306-1.424-0.797-1.814-1.847-1.832h-0.78
					v4.494h-2.559L49.411,67.014L49.411,67.014z M51.969,71.932h1.017c1.288,0,2.05-0.645,2.05-1.645
					c0-1.052-0.711-1.578-1.897-1.594c-0.627,0-0.984,0.051-1.169,0.084L51.969,71.932L51.969,71.932z"/>
			</g>
			<g>
				<path d="M69.843,72.459c0,3.75-2.271,6.021-5.608,6.021c-3.389,0-5.371-2.562-5.371-5.817c0-3.426,2.186-5.986,5.557-5.986
					C67.929,66.674,69.843,69.303,69.843,72.459z M61.591,72.61c0,2.239,1.05,3.817,2.779,3.817c1.745,0,2.745-1.664,2.745-3.885
					c0-2.053-0.982-3.816-2.762-3.816C62.607,68.728,61.591,70.389,61.591,72.61z"/>
			</g>
		</g>
	</g>
	<g>
		<g>
			<ellipse fill="none" cx="125.309" cy="72.59" rx="17.654" ry="17.672"/>
		</g>
		<g>
			<g>
				<path d="M123.589,75.371l-0.813,2.936h-2.678l3.489-11.432h3.39l3.541,11.432h-2.779l-0.883-2.936H123.589z M126.486,73.438
					l-0.713-2.425c-0.202-0.68-0.405-1.527-0.574-2.207h-0.034c-0.171,0.68-0.34,1.544-0.526,2.207l-0.678,2.425H126.486z"/>
			</g>
		</g>
	</g>
</g>
</svg>

<?xml version="1.0"?>
<svg width="180" height="150" xmlns="http://www.w3.org/2000/svg" xmlns:svg="http://www.w3.org/2000/svg" enable-background="new 0 0 180 150" version="1.1" xml:space="preserve">
 <g class="layer">
  <title>Layer 1</title>
  <g id="svg_1">
   <g id="svg_2">
    <g id="svg_3">
     <g id="svg_4">
      <polygon fill="#1C75BC" id="svg_5" points="45.588,148.989 1.177,75 45.588,1.008 134.413,1.008 178.824,75 134.413,148.989     "/>
      <path d="m134.98,150l-89.96,0l-45.02,-75l45.02,-75l89.96,0l45.02,75l-45.02,75zm-88.82,-2.02l87.68,0l43.81,-72.98l-43.81,-72.98l-87.68,0l-43.81,72.98l43.81,72.98z" fill="#2F5190" id="svg_6"/>
     </g>
     <g id="svg_7"/>
    </g>
   </g>
   <g id="svg_27">
    <g id="svg_28">
     <rect fill="#FFFFFF" height="6.06" id="svg_29" width="70.62" x="54.69" y="69.55"/>
    </g>
    <g id="svg_30">
     <path d="m72.36,72.58c0,9.76 -7.91,17.68 -17.66,17.68s-17.65,-7.92 -17.65,-17.68c0,-9.76 7.9,-17.67 17.65,-17.67s17.66,7.91 17.66,17.67z" fill="#FFFFFF" id="svg_31"/>
    </g>
    <g id="svg_32">
     <path d="m142.96,72.58c0,9.76 -7.9,17.67 -17.65,17.67c-9.75,0 -17.65,-7.91 -17.65,-17.67c0,-9.76 7.9,-17.67 17.65,-17.67c9.75,0 17.65,7.91 17.65,17.67z" fill="#FFFFFF" id="svg_33"/>
    </g>
   </g>
   <g id="svg_34">
    <g id="svg_35">
     <ellipse cx="54.7" cy="72.58" fill="none" id="svg_36" rx="17.65" ry="17.67"/>
    </g>
    <g id="svg_37">
     <g id="svg_38">
      <path d="m39.57,67.01c0.79,-0.13 1.91,-0.23 3.49,-0.23c1.59,0 2.73,0.3 3.49,0.91c0.73,0.58 1.22,1.53 1.22,2.65c0,1.12 -0.37,2.07 -1.05,2.71c-0.88,0.83 -2.19,1.21 -3.71,1.21c-0.34,0 -0.65,-0.02 -0.88,-0.05l0,4.08l-2.56,0l0,-11.28l0,0l0,0zm2.56,5.19c0.22,0.06 0.49,0.07 0.86,0.07c1.37,0 2.22,-0.69 2.22,-1.86c0,-1.06 -0.73,-1.68 -2.02,-1.68c-0.52,0 -0.88,0.05 -1.06,0.1l0,3.37l0,0z" id="svg_39"/>
     </g>
     <g id="svg_40">
      <path d="m49.41,67.01c0.83,-0.13 2.07,-0.23 3.44,-0.23c1.69,0 2.88,0.25 3.69,0.9c0.68,0.54 1.06,1.34 1.06,2.39c0,1.46 -1.04,2.46 -2.02,2.81l0,0.05c0.8,0.33 1.24,1.09 1.52,2.14c0.36,1.29 0.72,2.78 0.94,3.22l-2.65,0c-0.18,-0.32 -0.46,-1.25 -0.79,-2.66c-0.31,-1.42 -0.8,-1.81 -1.85,-1.83l-0.78,0l0,4.49l-2.56,0l0,-11.28l0,0zm2.56,4.92l1.02,0c1.28,0 2.05,-0.64 2.05,-1.64c0,-1.06 -0.71,-1.58 -1.9,-1.6c-0.63,0 -0.98,0.05 -1.17,0.09l0,3.15l0,0z" id="svg_41"/>
     </g>
     <g id="svg_42">
      <path d="m69.84,72.46c0,3.75 -2.27,6.02 -5.61,6.02c-3.38,0 -5.37,-2.56 -5.37,-5.82c0,-3.42 2.19,-5.98 5.56,-5.98c3.51,-0.01 5.42,2.62 5.42,5.78zm-8.25,0.15c0,2.24 1.05,3.82 2.78,3.82c1.75,0 2.75,-1.67 2.75,-3.89c0,-2.05 -0.99,-3.81 -2.77,-3.81c-1.74,0 -2.76,1.66 -2.76,3.88z" id="svg_43"/>
     </g>
    </g>
   </g>
   <g id="svg_44">
    <g id="svg_45">
     <ellipse cx="125.31" cy="72.59" fill="none" id="svg_46" rx="17.65" ry="17.67"/>
    </g>
    <g id="svg_47">
     <g id="svg_48">
      <path d="m123.59,75.37l-0.81,2.94l-2.68,0l3.49,-11.44l3.39,0l3.54,11.44l-2.78,0l-0.88,-2.94l-3.27,0zm2.9,-1.93l-0.72,-2.43c-0.2,-0.68 -0.4,-1.52 -0.57,-2.2l-0.03,0c-0.18,0.68 -0.34,1.54 -0.53,2.2l-0.68,2.43l2.53,0z" id="svg_49"/>
     </g>
    </g>
   </g>
  </g>
 </g>
</svg>
